core/assets/icons/touch_id.svg

<svg width="24" height="24" viewBox="0 0 24 24" xmlns="http://www.w3.org/2000/svg"><g id="touch id"><path id="Vector" d="M17.0001 13V14C17.0001 16.77 16.3361 19.445 15.0851 21.846L14.8581 22.266L13.1111 21.292C14.2711 19.212 14.9211 16.882 14.9931 14.456L15.0001 14V13H17.0001ZM11.0001 10H13.0001V14L12.9951 14.379C12.9195 17.1167 11.9773 19.7598 10.3041 21.928L10.0731 22.218L8.52312 20.954C10.0495 19.0899 10.9181 16.7741 10.9941 14.366L11.0001 14V10ZM12.0001 6.00001C13.3262 6.00001 14.598 6.52679 15.5357 7.46448C16.4733 8.40216 17.0001 9.67393 17.0001 11H15.0001C15.0001 10.2044 14.6841 9.4413 14.1214 8.87869C13.5588 8.31608 12.7958 8.00001 12.0001 8.00001C11.2045 8.00001 10.4414 8.31608 9.8788 8.87869C9.31619 9.4413 9.00012 10.2044 9.00012 11V14C9.00012 16.235 8.18012 18.344 6.72912 19.977L6.51712 20.207L5.06912 18.827C6.23908 17.6029 6.92336 15.9948 6.99412 14.303L7.00012 14V11C7.00012 9.67393 7.52691 8.40216 8.46459 7.46448C9.40227 6.52679 10.674 6.00001 12.0001 6.00001V6.00001ZM12.0001 2.00001C14.3871 2.00001 16.6763 2.94822 18.3641 4.63605C20.0519 6.32388 21.0001 8.61306 21.0001 11V14C21.0001 15.698 20.7981 17.37 20.4031 18.99L20.2641 19.529L18.3341 19.003C18.7261 17.566 18.9471 16.081 18.9921 14.568L19.0001 14V11C19.0001 9.70087 18.6386 8.42737 17.956 7.32201C17.2734 6.21666 16.2967 5.32307 15.1351 4.74125C13.9735 4.15943 12.673 3.91233 11.379 4.02762C10.0849 4.1429 8.84854 4.61601 7.80812 5.39401L6.38312 3.96801C7.9766 2.69129 9.95827 1.99698 12.0001 2.00001V2.00001ZM4.96812 5.38301L6.39412 6.80801C5.53645 7.95124 5.05118 9.3306 5.00412 10.759L5.00012 11L5.00412 13C5.00412 14.12 4.74012 15.203 4.24212 16.177L4.08612 16.467L2.34912 15.475C2.72912 14.81 2.95112 14.068 2.99512 13.292L3.00412 13V11C2.99819 8.95834 3.69127 6.97615 4.96812 5.38301V5.38301Z"/></g></svg>

<svg xmlns="http://www.w3.org/2000/svg" width="24" height="24" fill="none"><path fill="#191C22" d="M17 13v1c0 2.77-.664 5.445-1.915 7.846l-.227.42-1.747-.974c1.16-2.08 1.81-4.41 1.882-6.836L15 14v-1h2Zm-6-3h2v4l-.005.379a12.941 12.941 0 0 1-2.69 7.549l-.232.29-1.55-1.264a10.944 10.944 0 0 0 2.471-6.588L11 14v-4Zm1-4a5 5 0 0 1 5 5h-2a3 3 0 1 0-6 0v3c0 2.235-.82 4.344-2.27 5.977l-.213.23-1.448-1.38a6.969 6.969 0 0 0 1.925-4.524L7 14v-3a5 5 0 0 1 5-5Zm0-4a9 9 0 0 1 9 9v3c0 1.698-.202 3.37-.597 4.99l-.139.539-1.93-.526c.392-1.437.613-2.922.658-4.435L19 14v-3A7 7 0 0 0 7.808 5.394L6.383 3.968A8.962 8.962 0 0 1 12 2ZM4.968 5.383l1.426 1.425a6.966 6.966 0 0 0-1.39 3.951L5 11l.004 2c0 1.12-.264 2.203-.762 3.177l-.156.29-1.737-.992a4.95 4.95 0 0 0 .646-2.183l.01-.292v-2a8.94 8.94 0 0 1 1.963-5.617Z"/></svg>
